!!!!SEGMENT: pl-sa--220-a-vi-24--001_anonim--jesu-rex-admirabilis.krn
!!!cenid: 17xx:695
!!!COM: Anonim
!!!COM-rismid: pe30004985
!!!CDT:
!!!CNT:
!!!OTL: Jesu rex admirabilis
!!!PDT:
!!!AGN: Sacred
!!!SMS-siglum: PL-SA
!!!SMS-shelfmark: 220/A VI 24
!!!SMS-shelfwork: 001 W
!!!SMS-variant:
!!!SMS-altvar:
!!!NIFC-rismid: 1001041286
!!!URL-scan: http://bc.bdsandomierz.pl/dlibra/publication/1576/edition/1544/content
!!!ONB-nifc:
!!!AIN: 1 empty 2 violn 1 vox
!!!key:
**kern	**fba	**dynam	**kern	**dynam	**kern	**dynam	**kern	**text
*part4	*	*part4	*part3	*part3	*part2	*part2	*part1	*part1
*staff4	*	*	*staff3	*	*staff2	*	*staff1	*staff1
*Iempty	*	*	*Ivioln	*	*Ivioln	*	*Ivox	*
*I"Fundamento	*	*	*I"Violino Secundo	*	*I"Violino Primo	*	*I"Canto Solo.	*
*I'bc	*	*	*I'vl II	*	*I'vl I	*	*I'C	*
*clefF4	*	*	*clefG2	*	*clefG2	*	*clefC1	*
*k[f#c#]	*	*	*k[f#c#]	*	*k[f#c#]	*	*k[f#c#]	*
*D:	*	*	*D:	*	*D:	*	*D:	*
*M4/4	*	*	*M4/4	*	*M4/4	*	*M4/4	*
*met(c)	*	*	*met(c)	*	*met(c)	*	*met(c)	*
=1	=1	=1	=1	=1	=1	=1	=1	=1
!LO:TX:i:a:B:t=Aria.:rj	!	!	!LO:TX:i:a:B:t=Aria.:rj	!	!	!	!LO:TX:b:t=13.	!
!	!	!	!	!	!LO:TX:i:b:t=Jesu Rex.	!	!LO:TX:a:t=P:problem=przy kluczu [cc# f#]	!
!LO:TX:a:i:B:t=Vivace	!	!	!LO:TX:i:a:B:t=Vivace	!	!LO:TX:i:a:B:t=Vivace	!	!LO:TX:i:a:B:t=Vivace	!
!	!	!	!	!	!LO:TX:i:a:B:t=Aria.:rj	!	!LO:TX:i:a:B:t=Aria.:rj	!
8D/L	.	.	8f#/	.	8a/	.	00r	.
8D/	.	.	4f#/	.	4dd\	.	.	.
8D/	.	.	.	.	.	.	.	.
8D/J	7 4	.	8e/	.	8cc#\	.	.	.
.	.	.	8qqe/	.	16qqee/	.	.	.
8D/L	8 3	.	4.f#/	.	4.dd\	.	.	.
8D/	.	.	.	.	.	.	.	.
8D/	.	.	.	.	.	.	.	.
8D/J	.	.	8f#/	.	16cc#\LL	.	.	.
.	.	.	.	.	16b\JJ	.	.	.
=2	=2	=2	=2	=2	=2	=2	=2	=2
8C#/L	X 6	.	8e/L	.	16a\LL	.	.	.
.	.	.	.	.	16b\	.	.	.
8C#/	.	.	8e/	.	16cc#\	.	.	.
.	.	.	.	.	16dd\JJ	.	.	.
!	!	!	!	!	!LO:TX:a:t=P:problem=mixed beam	!	!	!
8C#/	.	.	8e/	.	8ee\L	.	.	.
8C#/J	X 5	.	8e/J	.	8g/J	.	.	.
!LO:TX:a:t=P:problem=mixed beam	!	!	!	!	!	!	!	!
8D/L	9 4	.	8e/L	.	8g/L	.	.	.
8d\	8_ 3_	.	8d/J	.	8f#/J	.	.	.
8A\	.	.	4r	.	4r	.	.	.
8F#\J	.	.	.	.	.	.	.	.
=3	=3	=3	=3	=3	=3	=3	=3	=3
*	*	*	*	*	*	*below	*	*
!	!	!	!	!	!	!LO:HP:b:t=piano	!	!
!	!	!	!	!LO:HP:b:t=pia	!	!LO:DY:B:rj	!	!
8D\L	x	.	8f#/	p	8a/	p	.	.
8D\	.	.	4f#/	.	4dd\	.	.	.
8D\	.	.	.	.	.	.	.	.
8D\J	7 4	.	8e/	.	8cc#\	.	.	.
.	.	.	8qqe/	.	16qqee/	.	.	.
8D\L	8 3	.	4.f#/	.	4.dd\	.	.	.
8D\	.	.	.	.	.	.	.	.
8D\	.	.	.	.	.	.	.	.
8D\J	.	.	8f#/	.	(>16cc#\LL	.	.	.
.	.	.	.	.	16b\JJ)	.	.	.
=4	=4	=4	=4	=4	=4	=4	=4	=4
8C#/L	X 6	.	8e/L	.	16a\LL	.	.	.
.	.	.	.	.	16b\	.	.	.
8C#/	.	.	8e/	.	16cc#\	.	.	.
.	.	.	.	.	16dd\JJ	.	.	.
!	!	!	!	!	!LO:TX:a:t=P:problem=mixed beam	!	!	!
8C#/	.	.	8e/	.	8ee\L	.	.	.
8C#/J	X 5	.	8e/J	.	8g/J	.	.	.
!LO:TX:a:t=P:problem=mixed beam	!	!	!	!	!	!	!	!
.	.	.	8qqf#/	.	16qqa/	.	.	.
8D/L	9 4:	.	8e/L	.	8g/L	.	.	.
8d\	8 3	.	8d/J	.	8f#/J	.	.	.
8A\	.	.	4r	.	4r	.	.	.
8F#\J	.	.	.	.	.	.	.	.
=5	=5	=5	=5	=5	=5	=5	=5	=5
!	!	!	!	!LO:HP:b:t=for	!	!LO:HP:b:t=for	!	!
!	!	!	!	!LO:DY:b:rj	!	!LO:DY:b:rj	!	!
8D/L	.	.	8d/L	f	8d/L	f	00r	.
8D/	.	.	16e/L	.	16e/L	.	.	.
.	.	.	16f#/JJ	.	16f#/JJ	.	.	.
8D/	.	.	16g/LL	.	16g/LL	.	.	.
.	.	.	16a/	.	16a/	.	.	.
8D/J	.	.	16b/	.	16b/	.	.	.
.	.	.	16cc#/JJ	.	16cc#/JJ	.	.	.
!LO:TX:a:t=P:problem=odwrócona "6" w bc	!	!	!	!	!	!	!	!
!LO:SIC:t=albo 8C#	!	!	!	!	!	!	!	!
8D/L	X 6	.	16dd\LL	.	16dd\LL	.	.	.
.	.	.	16ee\	.	16ee\	.	.	.
!LO:SIC:t=albo 8C#	!	!	!	!	!	!	!	!
8D/	.	.	16ff#\	.	16ff#\	.	.	.
.	.	.	16gg\JJ	.	16gg\JJ	.	.	.
8D/	.	.	8aa\L	.	8aa\L	.	.	.
8D/J	.	.	8ff#\J	.	8ff#\J	.	.	.
!	!	!	!LO:LB:g=original	!	!LO:LB:g=original	!	!	!
=6	=6	=6	=6	=6	=6	=6	=6	=6
8C#/L	X 6	.	4ee\	.	4ee\	.	.	.
8C#/	.	.	.	.	.	.	.	.
8BB/	X 6|	.	4dd\	.	4dd\	.	.	.
8BB/J	.	.	.	.	.	.	.	.
.	.	.	.	.	16qqee/	.	.	.
!LO:LB:g=original	!	!	!LO:TX:a:t=P:problem=niejednoznaczny zapis ozdobnika [przyjęto trillo]&colon;global	!	!LO:TX:a:t=P:problem=niejednoznaczny zapis ozdobnika [przyjęto trillo]&colon;global	!	!	!
!	!	!	!LO:TX:a:B:t=t	!	!LO:TX:a:B:t=t	!	!	!
8AA/L	.	.	8dd\L	.	8dd\L	.	.	.
8AA/	.	.	8cc#\J	.	8cc#\J	.	.	.
8AA/	.	.	4r	.	4r	.	.	.
8AA/J	.	.	.	.	.	.	.	.
=7	=7	=7	=7	=7	=7	=7	=7	=7
.	.	.	16qqb/	.	16qqdd/	.	.	.
8A\L	.	.	(<16a/LL	.	(>16cc#\LL	.	.	.
.	.	.	16g#X/)	.	16b\	.	.	.
8A\	.	.	16a/	.	16cc#\	.	.	.
.	.	.	16b/JJ	.	16dd\JJ)	.	.	.
8A\	.	.	[>4cc#\	.	[>4ee\	.	.	.
8A\J	.	.	.	.	.	.	.	.
8A\L	.	.	8cc#\L]	.	8ee\L]	.	.	.
8A\	7 5	.	(>8ee\	.	(>8gg\	.	.	.
8A\	6 4	.	8dd\	.	8ff#\	.	.	.
8A\J	5 3	.	8cc#\J)	.	8ee\J)	.	.	.
=8	=8	=8	=8	=8	=8	=8	=8	=8
!	!	!	!LO:TX:a:t=P:problem=mixed beam	!	!	!	!	!
8A\L	6_ 4_	.	8a/L	.	16dd\LL	.	.	.
.	.	.	.	.	16cc#\	.	.	.
8A\	.	.	(>16dd\L	.	16dd\	.	.	.
.	.	.	16cc#\JJ)	.	16ee\JJ	.	.	.
8A\	.	.	[>4dd\	.	[>4ff#\	.	.	.
8A\J	.	.	.	.	.	.	.	.
8A\L	x6 4	.	8dd\L]	.	8ff#\L]	.	.	.
8A\	8 6	.	(>8ff#\	.	8aa\	.	.	.
8A\	7 5	.	8ee\	.	8gg\	.	.	.
8A\J	6 4	.	8dd\J)	.	8ff#\J	.	.	.
=9	=9	=9	=9	=9	=9	=9	=9	=9
.	.	.	16qqdd/	.	16qqff#/	.	.	.
8A\L	7_ 5_	.	(>16cc#\LL	.	16ee\LL	.	00rcc	.
.	.	.	16b\	.	(>16dd\	.	.	.
8A\	.	.	16cc#\	.	16ee\	.	.	.
.	.	.	16dd\JJ)	.	16ff#\JJ)	.	.	.
8A\	.	.	[>4ee\	.	[>4gg\	.	.	.
8A\J	.	.	.	.	.	.	.	.
8A\L	x7 5	.	8ee\L]	.	8gg\L]	.	.	.
8A\	9 7	.	8gg\	.	8bb\	.	.	.
8A\	8 6	.	8ff#\	.	8aa\	.	.	.
8A\J	7 5	.	8ee\J	.	8gg\J	.	.	.
=10	=10	=10	=10	=10	=10	=10	=10	=10
!	!	!	!	!	!	!LO:HP:b:t=for	!	!
.	.	.	16qqee/	.	16qqgg/	f	.	.
8d\L	X 3_	.	(>16dd\LL	.	(>16ff#\LL	.	.	.
.	.	.	16cc#\	.	16ee\	.	.	.
8d\	.	.	16dd\	.	16ff#\	.	.	.
.	.	.	16ee\JJ)	.	16gg\JJ)	.	.	.
8c#\	.	.	4dd\	.	4ff#\	.	.	.
8c#\J	.	.	.	.	.	.	.	.
.	.	.	16qqee/	.	16qqgg/	.	.	.
!	!	!	!	!LO:HP:b:t=p:	!	!LO:HP:b:t=p:	!	!
8B\L	.	.	(>16dd\LL	p	(>16ff#\LL	p	.	.
.	.	.	16cc#\	.	16ee\	.	.	.
8B\	.	.	16dd\	.	16ff#\	.	.	.
.	.	.	16ee\JJ)	.	16gg\JJ)	.	.	.
8A\	.	.	4dd\	.	4ff#\	.	.	.
8A\J	.	.	.	.	.	.	.	.
!	!	!	!LO:LB:g=original	!	!	!	!	!
=11	=11	=11	=11	=11	=11	=11	=11	=11
.	x	.	16qqee/	.	16qqgg/	.	.	.
!	!	!	!	!LO:HP:b:t=for	!	!LO:HP:b:t=for	!	!
8G#X\L	7_ 5_	.	(>16dd\LL	f	(>16ff#\LL	f	.	.
.	.	.	16cc#\	.	16ee\	.	.	.
8G#\	.	.	16dd\	.	16ff#\	.	.	.
.	.	.	16ee\JJ)	.	16gg\JJ)	.	.	.
8G#\	.	.	4dd\	.	4ff#\	.	.	.
8G#\J	.	.	.	.	.	.	.	.
!	!	!	!	!LO:HP:b:t=pia	!	!	!	!
.	.	.	16qqee/	p	16qqgg/	.	.	.
!	!	!	!	!	!	!LO:HP:b:t=pia	!	!
8G#\L	.	.	(>16dd\LL	.	16ff#\LL	p	.	.
.	.	.	16cc#\	.	16ee\	.	.	.
8G#\	.	.	16dd\	.	16ff#\	.	.	.
.	.	.	16ee\JJ)	.	16gg\JJ	.	.	.
8G#\	.	.	4dd\	.	4ff#\	.	.	.
8G#\J	.	.	.	.	.	.	.	.
!	!	!	!	!	!LO:LB:g=original	!	!	!
=12	=12	=12	=12	=12	=12	=12	=12	=12
!	!	!	!	!LO:HP:b:t=for	!	!LO:HP:b:t=for	!	!
!	!	!	!	!LO:DY:b:rj	!	!LO:DY:b:rj	!	!
8A\L	6 4	.	8dd\L	f	8ff#\L	f	.	.
8A\	.	.	16cc#\L	.	16ee\L	.	.	.
.	.	.	16b\JJ	.	16dd\JJ	.	.	.
8A\	.	.	16a/LL	.	16cc#\LL	.	.	.
.	.	.	16g/	.	16b\	.	.	.
8A\J	.	.	16f#/	.	16a\	.	.	.
.	.	.	16e/JJ	.	16g\JJ	.	.	.
8AA/L	6 4	.	4d/	.	4f#/	.	.	.
8AA/	.	.	.	.	.	.	.	.
!	!	!	!	!	!LO:TX:a:B:t=t	!	!	!
8AA/	5 3	.	4c#/	.	4e/	.	.	.
8AA/J	.	.	.	.	.	.	.	.
!LO:LB:g=original	!	!	!	!	!	!	!	!
=13	=13	=13	=13	=13	=13	=13	=13	=13
!LO:TX:a:t=P:problem=mixed beam	!	!	!	!	!	!	!	!
8D\L	.	.	16d/LL	.	16d/LL	.	1ree	.
.	.	.	16f#/	.	16f#/	.	.	.
8DD/	.	.	16a/	.	16a/	.	.	.
.	.	.	16dd/JJ	.	16dd/JJ	.	.	.
8DD/	.	.	16a/LL	.	16a/LL	.	.	.
.	.	.	16f#/	.	16f#/	.	.	.
8DD/J	.	.	16a/	.	16a/	.	.	.
.	.	.	16f#/JJ	.	16f#/JJ	.	.	.
4DD/	.	.	4d/	.	4d/	.	.	.
!	!	!	!	!	!	!	!LO:TX:a:t=P:problem=brak podwójnej kreski taktowej	!
4r	.	.	4r	.	4r	.	.	.
!LO:TX:t=[segno]	!	!	!LO:TX:t=[segno]	!	!LO:TX:t=[segno]	!	!	!
=14||	=14||	=14||	=14||	=14||	=14||	=14||	=14	=14
!	!	!LO:HP:b:t=pia	!	!LO:HP:b:t=pia	!	!LO:HP:b:t=pia:	!	!
!	!	!LO:DY:b:rj	!	!	!	!	!	!
8D\L	.	p	8f#/	p	8a/	p	8a\	Je-
8D\	.	.	4f#/	.	4dd\	.	4dd\	-su
8D\	.	.	.	.	.	.	.	.
8D\J	7 4	.	8e/	.	8cc#\	.	8cc#\	Rex
.	.	.	8qqe/	.	16qqee/	.	8qqee/	.
8D\L	8 3	.	4.f#/	.	4.dd\	.	4.dd\	ad-
8D\	.	.	.	.	.	.	.	.
8D\	.	.	.	.	.	.	.	.
8D\J	.	.	8d/	.	16cc#\LL	.	16cc#\LL	-mi-
.	.	.	.	.	16b\JJ	.	16b\JJ	.
!	!	!	!LO:LB:g=original	!	!	!	!	!
=15	=15	=15	=15	=15	=15	=15	=15	=15
8C#/L	X 6	.	8e/L	.	16a\LL	.	16a\LL	-ra-
.	.	.	.	.	16b\	.	16b\	.
8C#/	.	.	8e/	.	16cc#\	.	16cc#\	.
.	.	.	.	.	16dd\JJ	.	16dd\JJ	.
!	!	!	!	!	!LO:TX:a:t=P:problem=mixed beam	!	!	!
8C#/	.	.	8e/	.	8ee\L	.	8ee\	.
8C#/J	X 5	.	8e/J	.	8g/J	.	8g/	.
.	.	.	16qqf#/	.	.	.	16qqa/	.
8D/L	9 4	.	8e/L	.	8g/L	.	16.g/	-bi-
.	.	.	.	.	.	.	32f#/	.
8DD/	8 3_	.	8d/J	.	8f#/J	.	8f#/	-lis
8FF#/	.	.	4r	.	4r	.	4r	.
8AA/J	X 3	.	.	.	.	.	.	.
=16	=16	=16	=16	=16	=16	=16	=16	=16
8D\L	.	.	8f#/	.	8a/	.	8a\	(et)
8D\	.	.	4f#/	.	4dd\	.	4dd\	Tri-
8D\	.	.	.	.	.	.	.	.
8D\J	7 4	.	8e/	.	8cc#\	.	8cc#\	-um-
.	.	.	8qqe/	.	16qqee/	.	16qqee/	.
8D\L	8 3	.	4.f#/	.	4.dd\	.	4.dd\	-pha-
8D\	.	.	.	.	.	.	.	.
8D\	.	.	.	.	.	.	.	.
8D\J	.	.	8f#/	.	16cc#\LL	.	16cc#\LL	.
.	.	.	.	.	16b\JJ	.	16b\JJ	.
=17	=17	=17	=17	=17	=17	=17	=17	=17
8C#/L	X 6	.	8e/L	.	16a\LL	.	16a\LL	.
.	.	.	.	.	16b\	.	16b\	.
8C#/	.	.	8e/	.	16cc#\	.	16cc#\	.
.	.	.	.	.	16dd\JJ	.	16dd\JJ	.
!	!	!	!	!	!LO:TX:a:t=P:problem=mixed beam	!	!	!
8C#/	.	.	8e/	.	8ee\L	.	8ee\	.
8C#/J	X 5	.	8e/J	.	8g/J	.	8g/	-tor
!	!	!	!	!	!	!	!LO:LB:g=original	!
.	.	.	.	.	.	.	16qqa/	.
!LO:TX:a:t=P:problem=mixed beam	!	!	!	!	!LO:LB:g=original	!	!	!
8D/L	9 4	.	8e/L	.	8g/L	.	16.g/	no-
.	.	.	.	.	.	.	32f#/	-bi-
8d\	8_ 3_	.	8d/J	.	8f#/J	.	8f#/	-lis
8A\	.	.	4r	.	4r	.	4r	.
8F#\J	.	.	.	.	.	.	.	.
=18	=18	=18	=18	=18	=18	=18	=18	=18
8D/L	x	.	4d/	.	4f#/	.	8d/L	dul-
8D/	.	.	.	.	.	.	16e/L	.
.	.	.	.	.	.	.	16f#/JJ	.
8D/	.	.	4r	.	4r	.	16g\LL	-ce-
.	.	.	.	.	.	.	16a\	.
8D/J	.	.	.	.	.	.	16b\	.
.	.	.	.	.	.	.	16cc#\JJ	.
!LO:SIC:t=albo 8C#	!	!	!	!	!	!	!	!
8D/L	.	.	4r	.	4r	.	16dd\LL	.
.	.	.	.	.	.	.	16ee\	.
8D/	.	.	.	.	.	.	16ff#\	.
.	.	.	.	.	.	.	16gg\JJ	.
8D/	.	.	8r	.	8r	.	8aa\	.
8D/J	.	.	8a/	.	8ff#\	.	8ff#\	-do
=19	=19	=19	=19	=19	=19	=19	=19	=19
8C#/L	X 6	.	8a/L	.	8ee\L	.	4ee\	in-
8C#/	.	.	8a/	.	8ee\	.	.	.
8BB/	X 6|	.	8g#X/	.	8dd\	.	4dd\	-ef-
8BB/J	.	.	8g#/J	.	8dd\J	.	.	.
!LO:LB:g=original	!	!	!	!	!	!	!	!
4AA/	.	.	4a/	.	4cc#\	.	16cc#\	-fa-
.	.	.	.	.	.	.	16b\	-bi-
.	.	.	.	.	.	.	8a\	-lis
16A\LL	.	.	16a/LL	.	16a/LL	.	4r	.
16G\	.	.	16gn/	.	16g/	.	.	.
16F#\	.	.	16f#/	.	16f#/	.	.	.
16E\JJ	.	.	16e/JJ	.	16e/JJ	.	.	.
=20	=20	=20	=20	=20	=20	=20	=20	=20
8D\L	.	.	4d/	.	4d/	.	8d/L	to-
8D\	.	.	.	.	.	.	16e/L	.
.	.	.	.	.	.	.	16f#/JJ	.
8D\	.	.	4r	.	4r	.	16g\LL	.
.	.	.	.	.	.	.	16a\	.
8D\J	.	.	.	.	.	.	16b\	.
.	.	.	.	.	.	.	16cc#\JJ	.
8D\L	.	.	4r	.	4r	.	16dd\LL	.
.	.	.	.	.	.	.	16ee\	.
8D\	.	.	.	.	.	.	16ff#\	.
.	.	.	.	.	.	.	16gg\JJ	.
8D\	.	.	8r	.	8r	.	8aa\	-tus
8D\J	.	.	8a/	.	8ff#\	.	8ff#\	de-
!	!	!	!LO:LB:g=original	!	!	!	!LO:LB:g=original	!
=21	=21	=21	=21	=21	=21	=21	=21	=21
8C#/L	X 6	.	8a/L	.	8ee\L	.	4ee\	-ſi-
8C#/	.	.	8a/	.	8ee\	.	.	.
!LO:SIC:t=albo 8C#	!	!	!	!	!	!	!	!
8BB/	X 6|	.	8g#X/	.	8dd\	.	4dd\	-de-
8BB/J	.	.	8g#/J	.	8dd\J	.	.	.
.	.	.	.	.	.	.	16qqee/	.
8AA/L	.	.	8a/L	.	8dd\L	.	8.dd\	-ra-
8AA/	.	.	8a/	.	8dd\	.	.	.
.	.	.	.	.	.	.	16cc#\	-bi-
8AA/	.	.	8a/	.	8cc#\	.	8cc#\	-lis
8AA/J	.	.	8a/J	.	8cc#\J	.	8r	.
=22	=22	=22	=22	=22	=22	=22	=22	=22
.	.	.	.	.	.	.	16qqdd/	.
8A\L	.	.	8a/L	.	8cc#\L	.	16cc#\LL	to-
.	.	.	.	.	.	.	16b\	.
8A\	.	.	8a/	.	8cc#\	.	16cc#\	.
.	.	.	.	.	.	.	16dd\JJ	.
8A\	.	.	8a/	.	8cc#\	.	16ee\LL	.
.	.	.	.	.	.	.	16cc#\	.
8A\J	.	.	8a/J	.	8cc#\J	.	16b\	.
.	.	.	.	.	.	.	16a\JJ	.
8A\L	.	.	8a/L	.	8cc#\L	.	4e/	.
8A\	.	.	8a/	.	8cc#\	.	.	.
8A\	.	.	8a/	.	8cc#\	.	4cc#\	.
8A\J	.	.	8a/J	.	8cc#\J	.	.	.
=23	=23	=23	=23	=23	=23	=23	=23	=23
.	.	.	.	.	.	.	8qqcc#/	.
8G#X\L	X 5	.	8b/L	.	8dd\L	.	16b\LL	.
.	.	.	.	.	.	.	16a\	.
8G#\	.	.	8b/	.	8dd\	.	16b\	.
.	.	.	.	.	.	.	16cc#\JJ	.
*	*	*	*	*	*	*	*2\right	*
.	.	.	.	.	.	.	4qqcc#/	.
8G#\	.	.	8b/	.	8dd\	.	2.dd\	-tus
8G#\J	.	.	8b/J	.	8dd\J	.	.	.
!	!	!	!LO:TX:a:t=h	!	!	!	!	!
8G#\L	.	.	8b/L	.	8dd\L	.	.	.
8G#\	.	.	8b/	.	8dd\	.	.	.
8G#\	.	.	8b/	.	8dd\	.	.	.
8G#\J	.	.	8b/J	.	8dd\J	.	.	.
=24	=24	=24	=24	=24	=24	=24	=24	=24
.	.	.	.	.	.	.	16qqdd/	.
8A\L	.	.	8a/L	.	8cc#\L	.	16cc#\LL	de-
.	.	.	.	.	.	.	16b\	.
8A\	.	.	8a/	.	8cc#\	.	16cc#\	.
.	.	.	.	.	.	.	16dd\JJ	.
8A\	.	.	8a/	.	8cc#\	.	16ee\LL	.
.	.	.	.	.	.	.	16cc#\JJ	.
8A\J	.	.	8a/J	.	8cc#\J	.	16b\LL	.
.	.	.	.	.	.	.	16a\JJ	.
8A\L	.	.	8a/L	.	8cc#\L	.	4e/	-ſi-
8A\	.	.	8a/	.	8cc#\	.	.	.
8A\	.	.	8a/	.	8cc#\	.	4cc#\	-de-
8A\J	.	.	8a/J	.	8cc#\J	.	.	.
!	!	!	!	!	!LO:LB:g=original	!	!	!
=25	=25	=25	=25	=25	=25	=25	=25	=25
.	.	.	.	.	.	.	16qqcc#/	.
8G#X\L	X 6	.	8b/L	.	8dd\L	.	16b\LL	-ra-
.	.	.	.	.	.	.	16a\	.
8G#\	.	.	8b/	.	8dd\	.	16b\	.
.	.	.	.	.	.	.	16cc#\JJ	.
.	.	.	.	.	.	.	4qqcc#/	.
8G#\	.	.	8b/	.	8dd\	.	2.dd\	.
8G#\J	.	.	8b/J	.	8dd\J	.	.	.
8G#X\L	X 5	.	8b/L	.	8dd\L	.	.	.
8G#\	.	.	8b/	.	8dd\	.	.	.
8G#\	.	.	8b/	.	8dd\	.	.	.
8G#\J	.	.	8b/J	.	8dd\J	.	.	.
!LO:LB:g=original	!	!	!	!	!	!	!LO:LB:g=original	!
=26	=26	=26	=26	=26	=26	=26	=26	=26
8A\L	.	.	8a/L	.	8cc#\L	.	16cc#\LL	.
.	.	.	.	.	.	.	16a\	.
8A\	.	.	8a/	.	8cc#\	.	16b\	.
.	.	.	.	.	.	.	16cc#\JJ	.
8A\	.	.	8a/	.	8cc#\	.	16dd\LL	.
.	.	.	.	.	.	.	16ee\	.
8A\J	.	.	8a/J	.	8cc#\J	.	16ff#\	.
.	.	.	.	.	.	.	16gg#X\JJ	.
8A\L	.	.	8a/L	.	8cc#\L	.	4.aa\	.
8A\	.	.	8a/	.	8cc#\	.	.	.
8A\	.	.	8a/	.	8cc#\	.	.	.
8A\J	.	.	8a/J	.	8cc#\J	.	8cc#\	.
!	!	!	!LO:LB:g=original	!	!	!	!	!
=27	=27	=27	=27	=27	=27	=27	=27	=27
8E\L	X #	.	8g#X/L	.	8b/L	.	16b\LL	.
.	.	.	.	.	.	.	16g#X\	.
8E\	.	.	8g#/	.	8b/	.	16a\	.
.	.	.	.	.	.	.	16b\JJ	.
8E\	.	.	8g#/	.	8b/	.	16cc#\LL	.
.	.	.	.	.	.	.	16dd\	.
8E\J	.	.	8g#/J	.	8b/J	.	16ee\	.
.	.	.	.	.	.	.	16ff#\JJ	.
8E\L	.	.	8g#/L	.	8b/L	.	4.gg#X\	.
8E\	.	.	8g#/	.	8b/	.	.	.
8E\	.	.	8g#/	.	8b/	.	.	.
8E\J	.	.	8g#/J	.	8b/J	.	8b\	.
=28	=28	=28	=28	=28	=28	=28	=28	=28
8F#\L	X 7	.	8f#/L	.	8a/L	.	16a\LL	.
.	.	.	.	.	.	.	16f#\	.
8F#\	.	.	8f#/	.	8a/	.	16g#X\	.
.	.	.	.	.	.	.	16a\JJ	.
8F#\	.	.	8f#/	.	8a/	.	16b\LL	.
.	.	.	.	.	.	.	16cc#\	.
8F#\J	.	.	8f#/J	.	8a/J	.	16dd#X\	.
.	.	.	.	.	.	.	16ee\JJ	.
8BB/L	7 #	.	8f#/L	.	8a/L	.	4.ff#\	.
8BB/	.	.	8f#/	.	8a/	.	.	.
8BB/	.	.	8f#/	.	8a/	.	.	.
8BB/J	.	.	8f#/J	.	8a/J	.	8a\	-bi-
=29	=29	=29	=29	=29	=29	=29	=29	=29
.	.	.	.	.	.	.	4qqa/	.
8E\L	X #	.	8e/L	.	8a/L	.	2g#X\	-lis
8E\J	.	.	8e/J	.	8g#X/J	.	.	.
8E\L	.	.	8e/L	.	8g#/L	.	.	.
!	!	!	!	!LO:HP:b:i:t=for	!	!LO:HP:b:i:t=for	!	!
!	!	!	!	!LO:DY:b:rj	!	!LO:DY:b:rj	!	!
16E\L|	.	.	16e/L	f	16e/L	f	.	.
16F#\JJ|	.	.	16f#/JJ	.	16f#/JJ	.	.	.
8E\L|	.	.	8e/L|	.	8e/L	.	2r	.
8D\|	.	.	8d/|	.	8d/	.	.	.
8C#\|	.	.	8c#/|	.	8c#/	.	.	.
8BB\J|	.	.	8B/J|	.	8B/J	.	.	.
=30	=30	=30	=30	=30	=30	=30	=30	=30
*	*	*	*	*	*^	*	*	*
!LO:TX:a:t=P:problem=mixed beam	!	!	!LO:TX:a:t=P:problem=mixed beam	!	!LO:TX:a:t=P:problem=mixed beam	!	!	!	!
8AA/L	.	.	8A/L	.	8ryy	8A/L	.	16cc#\LL	dul-
.	.	.	.	.	.	.	.	16dd\	.
!	!	!	!	!LO:HP:b:t=pia	!	!	!LO:HP:b:t=pia	!	!
8A\	.	.	8cc#\	p	8ee/L	8cc#\	p	16ee\	.
.	.	.	.	.	.	.	.	16ff#\JJ	.
8A\	.	.	8cc#\	.	8ee/	8cc#\	.	4ee\	-ce-
8A\J	.	.	8cc#\J	.	8ee/J	8cc#\J	.	.	.
.	.	.	.	.	.	.	.	16qqff#/	.
8G#X\L	X 6	.	8b\L	.	8ee/L	8cc#\L	.	8ee\L	.
8G#\	.	.	8b\	.	8ee/J	8cc#\	.	16dd\L	.
.	.	.	.	.	.	.	.	16cc#\JJ	.
.	.	.	.	.	.	.	.	16qqee/	.
!	!	!	!	!	!LO:TX:a:t=d	!	!	!	!
8G#\	X 5	.	8b\	.	8rddyy	8b\ 8dd	.	8dd\L	.
8G#\J	.	.	8b\J	.	8rddyy	8b\J 8dd	.	16cc#\L	.
.	.	.	.	.	.	.	.	16b\JJ	.
!	!	!	!	!	!	!	!	!LO:LB:g=original	!
*	*	*	*	*	*v	*v	*	*	*
=31	=31	=31	=31	=31	=31	=31	=31	=31
!LO:TX:a:t=P:problem=złe wyświetlanie	!	!	!LO:TX:a:t=P:problem=złe wyświetlanie	!	!LO:TX:a:t=P:problem=złe wyświetlanie	!	!	!
.	.	.	.	.	.	.	16qqdd/	.
8A\L	.	.	8a/L	.	8cc#\L	.	8cc#\	-do
8E\J	X #_	.	8g#X/J	.	8b\J	.	8b\	.
!	!	!	!	!	!LO:TX:a:t=P:problem=mixed beam	!	!	!
!	!	!	!	!	!LO:TX:a:t=h	!	!	!
!	!	!	!	!LO:HP:b:t=for	!	!LO:HP:b:t=for	!	!
!	!	!	!	!LO:DY:b:rj	!	!	!	!
8E\L	.	.	8g#/L	f	8b\L	f	4r	.
16E\L	.	.	16e/L	.	16e/L	.	.	.
16F#\JJ	x	.	16f#/JJ	.	16f#/JJ	.	.	.
!	!	!	!	!	!LO:LB:g=original	!	!	!
8E\L	X #_	.	8e/L	.	8e/L	.	4r	.
8D\	.	.	8d/	.	8d/	.	.	.
8C#\	X 6	.	8c#/	.	8c#/	.	8r	.
8BB\J	X 6|	.	8B/J	.	8B/J	.	16b\	in-
.	.	.	.	.	.	.	16b\	-effa-
!LO:LB:g=original	!	!	!	!	!	!	!	!
=32	=32	=32	=32	=32	=32	=32	=32	=32
!LO:TX:a:t=P:problem=mixed beam	!	!	!LO:TX:a:t=P:problem=mixed beam	!	!LO:TX:a:t=P:problem=mixed beam	!	!	!
8AA/L	.	.	8A/L	.	8A/L	.	16cc#\LL	.
.	.	.	.	.	.	.	16dd\	.
!	!	!	!	!LO:HP:b:t=pia	!	!LO:HP:b:t=pia	!	!
8A\	.	.	8cc#\	p	8ee\	p	16ee\	.
.	.	.	.	.	.	.	16ff#\JJ	.
8A\	.	.	8cc#\	.	8ee\	.	(>4ee\	.
8A\J	.	.	8cc#\J	.	8ee\J	.	.	.
.	.	.	.	.	.	.	16qqff#/)	.
!	!	!	!LO:LB:g=original	!	!	!	!	!
8G#X\L	X 6	.	8b/L	.	8ee\L	.	8ee\L	.
8G#\	.	.	8b/	.	8ee\	.	16dd\L	.
.	.	.	.	.	.	.	16cc#\JJ	.
.	.	.	.	.	.	.	16qqee/	.
8G#\	X 5	.	8b/	.	8dd\	.	8dd\L	.
8G#\J	.	.	8b/J	.	8dd\J	.	16cc#\L	.
.	.	.	.	.	.	.	16b\JJ	.
=33	=33	=33	=33	=33	=33	=33	=33	=33
!LO:TX:a:t=P:problem=złe wyświetlanie	!	!	!LO:TX:a:t=P:problem=złe wyświetlanie	!	!LO:TX:a:t=P:problem=złe wyświetlanie	!	!	!
.	.	.	.	.	.	.	16qqdd/	.
8A\L	.	.	8a/L	.	8cc#\L	.	16.cc#\	.
.	.	.	.	.	.	.	32b\	-bi-
8E\J	#_	.	8g#X/J	.	8b\J	.	8b\	-lis
!	!	!	!	!	!LO:TX:a:t=P:problem=mixed beam	!	!	!
8E\L	.	.	8g#/L	.	8b\L	.	4r	.
!	!	!	!	!	!	!LO:HP:b:t=for	!	!
16E\L	.	.	16e/L	.	16e/L	f	.	.
16F#\JJ	.	.	16f#/JJ	.	16f#/JJ	.	.	.
!	!	!	!	!LO:HP:b:t=for	!	!	!	!
!	!	!	!	!LO:DY:b:rj	!	!	!	!
8E\L	.	.	8e/L|	f	8e/L	.	2r	.
8D\	# 2	.	8d/|	.	8d/	.	.	.
8C#\	X 6	.	8c#/|	.	8c#/	.	.	.
8BB\J	X 6|	.	8B/J|	.	8B/J	.	.	.
=34	=34	=34	=34	=34	=34	=34	=34	=34
!LO:TX:a:t=P:problem=mixed beam	!	!	!LO:TX:a:t=P:problem=mixed beam	!	!LO:TX:a:t=P:problem=mixed beam	!	!	!
8AA/L	.	.	8A/L	.	8A/L	.	(>4.cc#\	dul-
!	!	!	!	!LO:HP:b:t=pia	!	!	!	!
8A\	.	.	8cc#\	p	8ff#\	.	.	.
!	!	!	!	!	!	!LO:HP:b:t=piano	!	!
8A\	.	.	8cc#\	.	8ff#\	p	.	.
8A\J	X 6	.	8cc#\J	.	8ff#\J	.	8ff#\)	.
8G#X\L	X 7	.	8b/L	.	8ff#\L	.	4ff#\	-ce-
8G#\	.	.	8b/	.	8ff#\	.	.	.
8G#\	X 6	.	8b/	.	8ee\	.	4ee\	-do
8G#\J	.	.	8b/J	.	8ee\J	.	.	.
=35	=35	=35	=35	=35	=35	=35	=35	=35
8F#\L	X 7	.	8a/L	.	8ee\L	.	4.a\	in-
8F#\	.	.	8a/	.	8ee\	.	.	.
8F#\	X 6	.	8a/	.	8dd\	.	.	.
8F#\J	.	.	8a/J	.	8dd\J	.	8dd\	-ef-
8E\L	7 #	.	8g#X/L	.	8dd\L	.	8.dd\	-fa-
8E\	.	.	8g#/	.	8dd\	.	.	.
.	.	.	.	.	.	.	16cc#\	-bi-
8E\	X 6	.	8g#/	.	8cc#\	.	4cc#\	-lis
8E\J	.	.	8g#/J	.	8cc#\J	.	.	.
!	!	!	!	!	!	!	!LO:LB:g=original	!
=36	=36	=36	=36	=36	=36	=36	=36	=36
8D\L	X 7	.	8f#/L	.	8cc#\L	.	(>4.f#/	to-
8D\	.	.	8f#/	.	8cc#\	.	.	.
8D\	X 6	.	8f#/	.	8b\	.	.	.
8D\J	.	.	8f#/J	.	8b\J	.	8b\)	.
8C#/L	X 7	.	8e/L	.	8b\L	.	4b\	-tus
8C#/	.	.	8e/	.	8b\	.	.	.
8C#/	X 6	.	8e/	.	8a\	.	4a\	de-
8C#/J	.	.	8e/J	.	8a\J	.	.	.
=37	=37	=37	=37	=37	=37	=37	=37	=37
!	!	!	!	!	!	!	!LO:TX:a:t=P:problem=niejednoznaczny zapis ozdobnika [przyjęto trillo]&colon;global	!
!	!	!	!	!	!	!	!LO:TX:a:B:t=t	!
8BB/L	X 7	.	8d/L	.	8a/L	.	4.a\	-si-
8BB/	.	.	8d/	.	8a/	.	.	.
8BB/	.	.	8d/	.	8a/	.	.	.
8BB/J	.	.	8d/J	.	8a/J	.	16g#X/LL	-de-
.	.	.	.	.	.	.	16f#/JJ	.
8BB/L	X 6|	.	4d/	.	4g#X/	.	16g#\LL	-ra-
.	.	.	.	.	.	.	16a\	.
8BB/	.	.	.	.	.	.	16b\	.
.	.	.	.	.	.	.	16cc#\JJ	.
8BB/	.	.	4r	.	4r	.	16dd\LL	.
.	.	.	.	.	.	.	16ee\	.
8BB/J	.	.	.	.	.	.	16ff#\	.
.	.	.	.	.	.	.	16gg#X\JJ	.
!LO:LB:g=original	!	!	!LO:LB:g=original	!	!LO:LB:g=original	!	!	!
=38	=38	=38	=38	=38	=38	=38	=38	=38
8AA/L	.	.	4.aa\	.	4.aa\	.	4.aa\	.
8AA/	.	.	.	.	.	.	.	.
8BB/	X 7	.	.	.	.	.	.	.
8BB/J	X 6|	.	16gg#X\LL	.	(>16gg#X\LL	.	16gg#X\LL	.
.	.	.	16ff#\JJ	.	16ff#\JJ)	.	16ff#\JJ	.
8C#/L	X 6	.	4ee\	.	4ee\	.	4ee\	.
8C#/	.	.	.	.	.	.	.	.
8D/	.	.	4dd\	.	4dd\	.	4dd\	.
8D/J	.	.	.	.	.	.	.	.
=39	=39	=39	=39	=39	=39	=39	=39	=39
8E\L	6 4	.	4cc#\	.	4cc#\|	.	16cc#\LL	.
.	.	.	.	.	.	.	16dd\	.
8E\	.	.	.	.	.	.	16ee\	.
.	.	.	.	.	.	.	16dd\JJ	.
8E\	.	.	4r	.	4r	.	16ee\LL	.
.	.	.	.	.	.	.	16cc#\	.
8E\J	.	.	.	.	.	.	16b\	.
.	.	.	.	.	.	.	16a\JJ	.
!	!	!	!	!	!	!	!LO:TX:a:B:t=t	!
.	.	.	.	.	.	.	8qqa/	.
8EE/L	5 #	.	4ee\	.	4ee\|	.	4.b\	.
8EE/	.	.	.	.	.	.	.	.
8EE/	.	.	4r	.	4r	.	.	.
8EE/J	.	.	.	.	.	.	8a\	-bi-
=40	=40	=40	=40	=40	=40	=40	=40	=40
!LO:TX:a:t=P:problem=mixed beam	!	!	!	!	!	!	!	!
!	!	!	!	!LO:DY:b:rj	!	!	!	!
!	!	!	!	!LO:HP:b:t=for	!	!LO:HP:b:t=for:	!	!
8AA/L	.	.	8ee\	f	8ee\	f	2a\	-lis
!	!	!LO:DY:b:rj	!	!	!	!	!	!
!	!	!LO:HP:b:t=for	!	!	!	!	!	!
8A\	.	f	4cc#\	.	4aa\	.	.	.
8A\	.	.	.	.	.	.	.	.
8A\J	7 4	.	8b\	.	8gg#X\	.	.	.
.	.	.	8qqb/	.	.	.	.	.
8A\L	8 3	.	4.cc#\	.	4.aa\	.	2r	.
8A\	.	.	.	.	.	.	.	.
8A\	.	.	.	.	.	.	.	.
8A\J	.	.	8cc#\	.	16gg#X\LL	.	.	.
.	.	.	.	.	16ff#\JJ	.	.	.
=41	=41	=41	=41	=41	=41	=41	=41	=41
!	!	!	!	!	!	!	!LO:TX:b:t=7.	!
8G#X\L	X 6	.	8b\L	.	16ee\LL	.	00r	.
.	.	.	.	.	16ff#\	.	.	.
8G#\	.	.	8b\	.	16gg#X\	.	.	.
.	.	.	.	.	16aa\JJ	.	.	.
8G#\	.	.	8b\	.	8bb\L	.	.	.
8G#\J	X 5	.	8b\J	.	8dd\J	.	.	.
.	.	.	.	.	8qqee/	.	.	.
8A\L	9 4	.	8b\L	.	8dd\L	.	.	.
8A\J	8 3	.	8a\J	.	8cc#X\J	.	.	.
16A\LL	.	.	4r	.	4r	.	.	.
16G#\	.	.	.	.	.	.	.	.
16F#\	.	.	.	.	.	.	.	.
16E\JJ	.	.	.	.	.	.	.	.
=42	=42	=42	=42	=42	=42	=42	=42	=42
8D\L	X 6	.	16b\LL	.	16b\LL	.	.	.
.	.	.	16cc#\	.	16cc#\	.	.	.
8D\	.	.	16dd\	.	16dd\	.	.	.
.	.	.	16ee\JJ	.	16ee\JJ	.	.	.
!	!	!	!LO:TX:a:t=P:problem=mixed beam	!	!LO:TX:a:t=P:problem=mixed beam	!	!	!
8D\	.	.	8ff#\L	.	8ff#\L	.	.	.
8D\J	.	.	8a/J	.	8a/J	.	.	.
.	.	.	8qqa/	.	8qqa/	.	.	.
8E\L	X #	.	4.g#X/	.	4.g#X/	.	.	.
8E\	.	.	.	.	.	.	.	.
8E\	.	.	.	.	.	.	.	.
8E\J	6 4	.	8a/	.	8a/	.	.	.
=43	=43	=43	=43	=43	=43	=43	=43	=43
.	.	.	8qqee/	.	8qqee/	.	.	.
8G#X\L	6 5	.	8dd\L	.	8dd\L	.	.	.
8G#\	.	.	16cc#\L	.	16cc#\L	.	.	.
.	.	.	16b\JJ	.	16b\JJ	.	.	.
.	.	.	16qqdd/	.	16qqdd/	.	.	.
8A\	.	.	8cc#\L	.	8cc#\L	.	.	.
8A\J	.	.	16b\L	.	16b\L	.	.	.
.	.	.	16a\JJ	.	16a\JJ	.	.	.
8E\L	X #	.	(>16b\LL	.	16b\LL	.	.	.
.	.	.	16g#X\JJ)	.	16g#X\JJ	.	.	.
.	.	.	8qqf#/	.	8qqf#/	.	.	.
8E\J	.	.	4.e/	.	4.e/	.	.	.
8E\L	.	.	.	.	.	.	.	.
16F#\L	.	.	.	.	.	.	.	.
16G#X\JJ	.	.	.	.	.	.	.	.
!LO:LB:g=original	!	!	!LO:LB:g=original	!	!LO:LB:g=original	!	!	!
=44	=44	=44	=44	=44	=44	=44	=44	=44
.	.	.	16qqb/	.	16qqdd/	.	.	.
!	!	!	!	!LO:HP:b:t=for	!	!	!	!
!	!	!	!	!LO:DY:b:rj	!	!	!	!
8A\L	X 3_	.	(<16a/LL	f	(>16cc#\LL	.	.	.
.	.	.	16g#X/	.	16b\	.	.	.
8A\	.	.	16a/	.	16cc#\	.	.	.
.	.	.	16b/JJ)	.	16dd\JJ)	.	.	.
.	.	.	8qqb/	.	.	.	.	.
8G#X\	.	.	4a/	.	4cc#\	.	.	.
8G#\J	.	.	.	.	.	.	.	.
.	.	.	16qqb/	.	16qqdd/	.	.	.
8F#\L	.	.	(<16a/LL	.	(>16cc#\LL	.	.	.
.	.	.	16g#X/	.	16b\	.	.	.
8F#\	.	.	16a/	.	16cc#\	.	.	.
.	.	.	16b/JJ)	.	16dd\JJ)	.	.	.
.	.	.	8qqb/	.	.	.	.	.
8E\	.	.	4a/	.	4cc#\	.	.	.
8E\J	x	.	.	.	.	.	.	.
=45	=45	=45	=45	=45	=45	=45	=45	=45
!	!	!	!	!LO:HP:b:t=pia	!	!	!	!
.	.	.	16qqb/	p	16qqdd/	.	.	.
!	!	!	!	!	!	!LO:HP:b:t=pia	!	!
8D#X\L	7_ 5_	.	(<16a/LL	.	(>16cc#\LL	p	0r	.
.	.	.	16g#X/	.	16b\	.	.	.
8D#\	.	.	16a/	.	16cc#\	.	.	.
.	.	.	16b/JJ)	.	16dd\JJ)	.	.	.
8D#\	.	.	4a/	.	4cc#\	.	.	.
8D#\J	.	.	.	.	.	.	.	.
.	.	.	16qqb/	.	16qqdd/	.	.	.
8D#\L	.	.	(<16a/LL	.	16cc#\LL	.	.	.
.	.	.	16g#X/	.	16b\	.	.	.
8D#\	.	.	16a/	.	16cc#\	.	.	.
.	.	.	16b/JJ)	.	16dd\JJ	.	.	.
8D#\	.	.	4a/	.	4cc#\	.	.	.
8D#\J	x	.	.	.	.	.	.	.
=46	=46	=46	=46	=46	=46	=46	=46	=46
!	!	!	!LO:TX:a:t=P:problem=mixed beam	!	!	!	!	!
!	!	!	!	!LO:HP:b:t=for	!	!LO:HP:b:t=for	!	!
8E\L	6 4	.	16a/LL	f	16cc#\LL	f	.	.
.	.	.	16aa\	.	16aa\	.	.	.
8E\	.	.	16gg#X\	.	16gg#X\	.	.	.
.	.	.	16ff#\JJ	.	16ff#\JJ	.	.	.
8E\	.	.	16ee\LL	.	16ee\LL	.	.	.
.	.	.	16dd\	.	16dd\	.	.	.
8E\J	.	.	16cc#\	.	16cc#\	.	.	.
.	.	.	16b\JJ	.	16b\JJ	.	.	.
8EE/L	6 4	.	4a/	.	4a/	.	.	.
8EE/	.	.	.	.	.	.	.	.
!	!	!	!LO:TX:a:B:t=t	!	!LO:TX:a:B:t=t	!	!	!
8EE/	# 5	.	4b/	.	4b/	.	.	.
8EE/J	.	.	.	.	.	.	.	.
=47	=47	=47	=47	=47	=47	=47	=47	=47
8AA/L	.	.	16a\LL	.	16a/LL	.	1r	.
.	.	.	16cc#\	.	16cc#/	.	.	.
8AA/	.	.	16ee\	.	16ee/	.	.	.
.	.	.	16aa\JJ	.	16aa/JJ	.	.	.
8AA/	.	.	16ee\LL	.	16ee\LL	.	.	.
.	.	.	16cc#\	.	16cc#\	.	.	.
8AA/J	.	.	16ee\	.	16ee\	.	.	.
.	.	.	16cc#\JJ	.	16cc#\JJ	.	.	.
4AA/	.	.	4a/	.	4a/	.	.	.
4r	.	.	4r	.	4r	.	.	.
!	!	!	!LO:LB:g=original	!	!	!	!LO:LB:g=original	!
=48	=48	=48	=48	=48	=48	=48	=48	=48
!	!	!	!	!LO:DY:b:rj	!	!	!	!
!	!	!LO:HP:b:t=pia	!	!LO:HP:b:t=pia	!	!LO:HP:b:t=pia	!	!
8A\L	.	p	8a/	p	8a/	p	8a\	Je-
8A\	.	.	4ee\	.	4ggn\	.	4ggn\	-su
8A\	.	.	.	.	.	.	.	.
8A\J	6 4	.	8dd\	.	8ff#\	.	8ff#\	Rex
.	.	.	8qqdd/	.	8qqff#/	.	8qqff#/	.
8A\L	5_ 3_	.	4.cc#\	.	4.ee\	.	4.ee\	ad-
8A\	.	.	.	.	.	.	.	.
8A\	.	.	.	.	.	.	.	.
8A\J	6 4	.	8dd\	.	8dd\	.	8dd\	-mi-
=49	=49	=49	=49	=49	=49	=49	=49	=49
!	!	!	!LO:TX:a:B:t=t	!	!LO:TX:a:B:t=t	!	!	!
.	.	.	8qqf#/	.	8qqdd/	.	8qqdd/	.
!	!	!	!	!	!	!	!LO:TX:a:B:t=t	!
8A\L	5_ 3_	.	8.e/L	.	8.cc#\L	.	8.cc#\L	-ra-
8A\	.	.	.	.	.	.	.	.
.	.	.	(<32d/LL	.	(>32b\LL	.	(>32b\LL	.
.	.	.	32e/JJJ)	.	32cc#\JJJ)	.	32cc#\JJJ)	.
!	!	!	!	!	!LO:TX:a:t=P:problem=mixed beam	!	!LO:TX:a:t=P:problem=mixed beam	!
8A\	.	.	8f#/L	.	8dd\L	.	8dd\L	.
8A\J	6 4	.	8d/J	.	8f#/J	.	8f#/J	.
!	!	!	!	!	!LO:LB:g=original	!	!	!
.	.	.	8qqe/	.	16qqg/	.	16qqg/	.
8A\L	6 4	.	8d/L	.	8f#/L	.	16.f#/	.
.	.	.	.	.	.	.	32e/	-bi-
8A\	5_ 3_	.	8c#/J	.	8e/J	.	8e/	-lis
8E\	.	.	4r	.	4r	.	4r	.
8C#\J	x	.	.	.	.	.	.	.
=50	=50	=50	=50	=50	=50	=50	=50	=50
8AA/L	.	.	8a/	.	8a/	.	8a\	(et)
8AA/	.	.	4ee\	.	4gg\	.	4gg\	Tri-
8AA/	.	.	.	.	.	.	.	.
8AA/J	6 4	.	8dd\	.	8ff#\	.	8ff#\	-um-
.	.	.	8qqdd/	.	8qqff#/	.	8qqff#/	.
!LO:LB:g=original	!	!	!	!	!	!	!	!
8AA/L	.	.	4.cc#\	.	4.ee\	.	4.ee\	-pha-
8AA/	.	.	.	.	.	.	.	.
8AA/	.	.	.	.	.	.	.	.
8AA/J	6 4	.	8dd\	.	8dd\	.	8dd\	.
=51	=51	=51	=51	=51	=51	=51	=51	=51
!	!	!	!LO:TX:a:B:t=t	!	!LO:TX:a:B:t=t	!	!LO:TX:a:B:t=t	!
.	.	.	8qqf#/	.	8qqdd/	.	8qqdd/	.
8AA/L	5_ 3_	.	8.e/L	.	8.cc#\L	.	8.cc#\L	.
8AA/	.	.	.	.	.	.	.	.
.	.	.	(<32d/LL	.	(>32b\LL	.	32b\LL	.
.	.	.	32e/JJJ)	.	32cc#\JJJ)	.	32cc#\JJJ	.
!	!	!	!	!	!LO:TX:a:t=P:problem=mixed beam	!	!	!
8AA/	.	.	8f#/L	.	8dd\L	.	8dd\	.
8AA/J	6 4	.	8d/J	.	8f#/J	.	8f#/	-tor
.	.	.	16qqe/	.	16qqg/	.	16qqg/	.
!LO:TX:a:t=P:problem=mixed beam	!	!	!	!	!	!	!	!
8AA/L	6 4	.	8d/L	.	8f#/L	.	16.f#/	no-
.	.	.	.	.	.	.	32e/	-bi-
8AA/	5 3	.	8c#/J	.	8e/J	.	8e/	-lis
8A\	.	.	4r	.	4r	.	4r	.
8Gn\J	.	.	.	.	.	.	.	.
!	!	!	!	!	!	!	!LO:LB:g=original	!
=52	=52	=52	=52	=52	=52	=52	=52	=52
8F#\L	X 6_	.	4d/	.	4d/	.	8d/L	dul-
8F#\	.	.	.	.	.	.	16e/L	.
.	.	.	.	.	.	.	16f#/JJ	.
8F#\	.	.	4r	.	4r	.	16g\LL	-ce-
.	.	.	.	.	.	.	16a\	.
8F#\J	.	.	.	.	.	.	16b\	.
.	.	.	.	.	.	.	16cc#\JJ	.
8F#\L	.	.	4a/	.	4dd\	.	16dd\LL	.
.	.	.	.	.	.	.	16ee\	.
8F#\	.	.	.	.	.	.	16ff#\	.
.	.	.	.	.	.	.	16gg\JJ	.
8F#\	.	.	4r	.	4r	.	8aa\	.
8F#\J	.	.	.	.	.	.	8dd\	-do
=53	=53	=53	=53	=53	=53	=53	=53	=53
!LO:TX:a:t=fis	!	!	!	!	!	!	!	!
8F#\L	X 6	.	8r	.	8r	.	4d/	in-
8F#\	.	.	8ccn\L	.	8aa\L	.	.	.
8F#\	.	.	8cc\	.	8aa\	.	4ccn\	-ef-
8F#\J	.	.	8a\J	.	8ccn\J	.	.	.
!	!	!	!LO:LB:g=original	!	!	!	!LO:TX:a:B:t=t	!
.	.	.	.	.	.	.	16qqdd/	.
8G\L	.	.	8a/L	.	8cc\L	.	16.cc\	-fa-
.	.	.	.	.	.	.	32b\	-bi-
8G\	.	.	8g/	.	8b\	.	8b\	-lis
8G\	.	.	8g/	.	8b\	.	4r	.
8G\J	.	.	8g/J	.	8b\J	.	.	.
=54	=54	=54	=54	=54	=54	=54	=54	=54
8G\L	.	.	8g/L	.	8b\L	.	(>4.b\	to-
8G\	.	.	8g/	.	8b\	.	.	.
8G\	X 6	.	8b/	.	8ee\	.	.	.
8G\J	.	.	8b/J	.	8ee\J	.	8ee\)	.
8F#\L	X 7	.	8a/L	.	8ee\L	.	(>4ee\	-tus
8F#\	.	.	8a/	.	8ee\	.	.	.
8F#\	X 6|	.	8a/	.	8dd#X\	.	8dd#X\)	.
8F#\J	.	.	8a/J	.	8dd#\J	.	8ff#\	de-
=55	=55	=55	=55	=55	=55	=55	=55	=55
8D#X\L	6 5	.	8a/L	.	8ff#\L	.	4ff#\	-si-
8D#\	.	.	8a/	.	8ff#\	.	.	.
8D#\	.	.	8a/	.	8ff#\	.	4a\	-de-
8D#\J	.	.	8a/J	.	8ff#\J	.	.	.
.	.	.	.	.	.	.	8qqb/	.
8E\L	9 4	.	8g/L	.	8b\L	.	16.a\	-ra-
.	.	.	.	.	.	.	32g\	-bi-
8E\	.	.	8g/	.	8b\	.	8g\	-lis
8E\	8 3	.	8g/	.	8b\	.	4r	.
8E\J	.	.	8g/J	.	8b\J	.	.	.
!LO:LB:g=original	!	!	!	!	!LO:LB:g=original	!	!LO:LB:g=original	!
=56	=56	=56	=56	=56	=56	=56	=56	=56
8C#/L	X 6_	.	8g/L	.	8ee\L	.	16ee\LL	de-
.	.	.	.	.	.	.	16ff#\	.
8C#/	.	.	8g/	.	8ee\	.	16gg\	.
.	.	.	.	.	.	.	16ff#\JJ	.
8C#/	.	.	8g/	.	8ee\	.	16ee\LL	.
.	.	.	.	.	.	.	16dd\	.
8C#/J	x	.	8g/J	.	8ee\J	.	16cc#\	.
.	.	.	.	.	.	.	16b\JJ	.
8C#/L	.	.	8g/L	.	8ee\L	.	4a\	-ſi-
8C#/	.	.	8g/	.	8ee\	.	.	.
8C#/	X n5	.	8g/	.	8ee\	.	4g\	-de-
8C#/J	.	.	8g/J	.	8ee\J	.	.	.
=57	=57	=57	=57	=57	=57	=57	=57	=57
8D/L	.	.	8f#/L	.	8a/L	.	16f#/LL	-ra-
.	.	.	.	.	.	.	16d/	.
8D/	.	.	8f#/	.	8a/	.	16e/	.
.	.	.	.	.	.	.	16f#/JJ	.
8D/	.	.	8f#/	.	8a/	.	16g\LL	.
.	.	.	.	.	.	.	16a\	.
8D/J	.	.	8f#/J	.	8a/J	.	16b\	.
.	.	.	.	.	.	.	16cc#\JJ	.
.	.	.	.	.	.	.	4qqcc#/	.
8D/L	.	.	8f#/L	.	8a/L	.	2dd\	.
8D/	.	.	8f#/	.	8a/	.	.	.
8D/	.	.	8f#/	.	8a/	.	.	.
8D/J	.	.	8f#/J	.	8a/J	.	.	.
=58	=58	=58	=58	=58	=58	=58	=58	=58
8C#/L	X 6_	.	8g/L	.	8ee\L	.	16ee\LL	.
.	.	.	.	.	.	.	16ff#\	.
8C#/	.	.	8g/	.	8ee\	.	16gg\	.
.	.	.	.	.	.	.	16ff#\JJ	.
8C#/	.	.	8g/	.	8ee\	.	16ee\LL	.
.	.	.	.	.	.	.	16dd\	.
8C#/J	.	.	8g/J	.	8ee\J	.	16cc#\	.
.	.	.	.	.	.	.	16b\JJ	.
8C#/L	.	.	8g/L	.	8ee\L	.	4a\	.
8C#/	.	.	8g/	.	8ee\	.	.	.
8C#/	X 5	.	8g/	.	8ee\	.	4g\	.
8C#/J	.	.	8g/J	.	8ee\J	.	.	.
=59	=59	=59	=59	=59	=59	=59	=59	=59
8D\L	.	.	8f#/L	.	8a/L	.	16f#/LL	.
.	.	.	.	.	.	.	16d/	.
8D\	.	.	8f#/	.	8a/	.	16e/	.
.	.	.	.	.	.	.	16f#/JJ	.
8D\	.	.	8f#/	.	8a/	.	16g\LL	.
.	.	.	.	.	.	.	16a\	.
8D\J	.	.	8f#/J	.	8a/J	.	16b\	.
.	.	.	.	.	.	.	16cc#\JJ	.
.	.	.	.	.	.	.	4qqcc#/	.
8D\L	.	.	8f#/L	.	8a/L	.	2dd\	.
8D\	.	.	8f#/	.	8a/	.	.	.
8D\	.	.	8f#/	.	8a/	.	.	.
8D\J	.	.	8f#/J	.	8a/J	.	.	.
!	!	!	!LO:LB:g=original	!	!	!	!	!
=60	=60	=60	=60	=60	=60	=60	=60	=60
8G\L	.	.	8g/L	.	8b/L	.	16b\LL	.
.	.	.	.	.	.	.	16g\	.
8G\	.	.	8g/	.	8b/	.	16a\	.
.	.	.	.	.	.	.	16b\JJ	.
8G\	.	.	8g/	.	8b/	.	16cc#\LL	.
.	.	.	.	.	.	.	16dd\	.
8G\J	.	.	8g/J	.	8b/J	.	16ee\	.
.	.	.	.	.	.	.	16ff#\JJ	.
!	!	!	!	!	!	!	!LO:LB:g=original	!
8G\L	.	.	8g/L	.	8b/L	.	8gg\L	.
8G\	.	.	8g/	.	8b/	.	8dd\	.
8G\	.	.	8g/	.	8b/	.	8b\	.
8G\J	.	.	8g/J	.	8b/J	.	8g\J	.
=61	=61	=61	=61	=61	=61	=61	=61	=61
8D\L	.	.	8f#/L	.	8a/L	.	16a\LL	.
.	.	.	.	.	.	.	16f#\	.
8D\	.	.	8f#/	.	8a/	.	16g\	.
.	.	.	.	.	.	.	16a\JJ	.
8D\	.	.	8f#/	.	8a/	.	16b\LL	.
.	.	.	.	.	.	.	16cc#\	.
8D\J	.	.	8f#/J	.	8a/J	.	16dd\	.
.	.	.	.	.	.	.	16ee\JJ	.
8D\L	.	.	8f#/L	.	8a/L	.	8ff#\L	.
8D\	.	.	8f#/	.	8a/	.	8dd\	.
8D\	.	.	8f#/	.	8a/	.	8a\	.
8D\J	.	.	8f#/J	.	8a/J	.	8f#\J	.
!LO:LB:g=original	!	!	!	!	!	!	!	!
=62	=62	=62	=62	=62	=62	=62	=62	=62
8AA/L	X 7_	.	8g/L	.	8g/L	.	16g/LL	.
.	.	.	.	.	.	.	16e/	.
8AA/	.	.	8g/	.	8g/	.	16f#/	.
.	.	.	.	.	.	.	16g/JJ	.
8AA/	.	.	8g/	.	8g/	.	16a\LL	.
.	.	.	.	.	.	.	16b\	.
8AA/J	.	.	8g/J	.	8g/J	.	16cc#\	.
.	.	.	.	.	.	.	16dd\JJ	.
8AA/L	.	.	8g/L	.	8g/L	.	8ee\L	.
8AA/	.	.	8g/	.	8g/	.	8cc#\	.
8AA/	x	.	8g/	.	8g/	.	8a\	.
8AA/J	.	.	8g/J	.	8g/J	.	8g\J	.
!	!	!	!	!	!LO:LB:g=original	!	!	!
=63	=63	=63	=63	=63	=63	=63	=63	=63
8D\L	.	.	4d/|	.	4f#/|	.	16f#/LL	.
.	.	.	.	.	.	.	16d/	.
8D\	.	.	.	.	.	.	16e/	.
.	.	.	.	.	.	.	16f#/JJ	.
8D\	.	.	4r	.	4r	.	16g\LL	.
.	.	.	.	.	.	.	16a\	.
8D\J	.	.	.	.	.	.	16b\	.
.	.	.	.	.	.	.	16cc#\JJ	.
!	!	!	!	!	!	!	!LO:TX:a:t=P:problem=mixed beam	!
8D\L	.	.	4a/|	.	4dd\|	.	16dd\LL	.
.	.	.	.	.	.	.	16f#/	.
8D\	.	.	.	.	.	.	16g/	.
.	.	.	.	.	.	.	16a/JJ	.
8D\	.	.	4r	.	4r	.	16b\LL	.
.	.	.	.	.	.	.	16cc#\	.
8D\J	.	.	.	.	.	.	16dd\	.
.	.	.	.	.	.	.	16ee\JJ	.
=64	=64	=64	=64	=64	=64	=64	=64	=64
8D\L	.	.	4dd\|	.	4ff#\|	.	16ff#\LL	.
.	.	.	.	.	.	.	16a\	.
8D\	.	.	.	.	.	.	16b\	.
.	.	.	.	.	.	.	16cc#\JJ	.
8D\	.	.	4r	.	4r	.	16dd\LL	.
.	.	.	.	.	.	.	16ee\	.
8D\J	.	.	.	.	.	.	16ff#\	.
.	.	.	.	.	.	.	16gg\JJ	.
!	!	!	!	!	!	!	!LO:LB:g=original	!
8D\L	.	.	4ff#\|	.	4aa\|	.	8aa\L	.
8D\	.	.	.	.	.	.	16gg\L	.
.	.	.	.	.	.	.	16ff#\JJ	.
8D\	.	.	8r	.	8r	.	8ee\L	.
8D\J	.	.	8f#/	.	8dd\	.	8dd\J	.
=65	=65	=65	=65	=65	=65	=65	=65	=65
!	!	!	!	!	!	!	!LO:TX:a:B:t=t	!
.	.	.	.	.	.	.	8qqee/	.
8A\L	6 4	.	4f#/	.	4dd\	.	8.dd\	.
8A\J	.	.	.	.	.	.	.	.
.	.	.	.	.	.	.	16cc#\	-bi-
8A\L	5 3	.	8e/L	.	8cc#\L	.	4cc#\	-lis
!	!	!	!	!	!	!LO:HP:b:t=for	!	!
16A\L	.	.	16a/L	.	16a\L	f	.	.
16B\JJ	.	.	16b/JJ	.	16b\JJ	.	.	.
8A\L	X 3_	.	8a/L|	.	8a/L|	.	2r	.
8G\	.	.	8g/|	.	8g/|	.	.	.
8F#\	X 6	.	8f#/|	.	8f#/|	.	.	.
8E\J	X 6	.	8e/J|	.	8e/J|	.	.	.
=66	=66	=66	=66	=66	=66	=66	=66	=66
8D\L	3_	.	4d/	.	4d/	.	16dd\LL	Je-
.	.	.	.	.	.	.	16ee\	.
8D\	.	.	.	.	.	.	16ff#\	.
.	.	.	.	.	.	.	16gg\JJ	.
*	*	*	*	*	*2\right	*	*	*
!	!	!	!	!	!	!LO:HP:b:t=pia	!	!
!	!	!	!	!	!	!LO:DY:b:rj	!	!
8D\	.	.	2a/	.	2ff#\	p	2ff#\	.
!LO:TX:a:t=P:problem=przekreślone 7 4 w bc	!	!	!	!	!	!	!	!
8D\J	7/ 4	.	.	.	.	.	.	.
8D\L	.	.	.	.	.	.	.	.
8D\	.	.	.	.	.	.	.	.
8D\	.	.	4g/	.	4ee\	.	4ee\	.
8D\J	.	.	.	.	.	.	.	.
!	!	!	!LO:LB:g=original	!	!	!	!	!
=67	=67	=67	=67	=67	=67	=67	=67	=67
8D\L	:8 3	.	(>16dd\LL	.	(>16ff#\LL	.	4dd\	.
.	.	.	16ee\	.	16gg\	.	.	.
!LO:SIC:v=zaczernienie na nutami	!	!	!	!	!	!	!	!
8D\	.	.	16ff#\	.	16aa\	.	.	.
.	.	.	16gg\JJ)	.	16bb\JJ)	.	.	.
*	*	*	*2\right	*	*	*	*	*
8D\	.	.	2ff#\	.	2aa\	.	2a\	-ſu
8D\J	.	.	.	.	.	.	.	.
8D\L	.	.	.	.	.	.	.	.
8D\	.	.	.	.	.	.	.	.
8D\	7 4	.	4ee\	.	4gg\	.	4a\	Rex
8D\J	.	.	.	.	.	.	.	.
!LO:LB:g=original	!	!	!	!	!	!	!	!
=68	=68	=68	=68	=68	=68	=68	=68	=68
8D\L	8 3	.	4dd\	.	4ff#\	.	16dd\LL	ad-
.	.	.	.	.	.	.	16ee\	.
8D\	.	.	.	.	.	.	16ff#\	.
.	.	.	.	.	.	.	16gg\JJ	.
8D\	.	.	2a/	.	2ff#\	.	2ff#\	.
8D\J	.	.	.	.	.	.	.	.
8D\L	.	.	.	.	.	.	.	.
8D\	.	.	.	.	.	.	.	.
8D\	7 4	.	4g/	.	4ee\	.	4ee\	-mi-
8D\J	.	.	.	.	.	.	.	.
=69	=69	=69	=69	=69	=69	=69	=69	=69
8D\L	8 3	.	(>16dd\LL	.	(>16ff#\LL	.	8.dd\	-ra-
.	.	.	16ee\	.	16gg\	.	.	.
8D\	.	.	16ff#\	.	16aa\	.	.	.
.	.	.	16gg\JJ)	.	16bb\JJ)	.	16a\	-bi-
8D\	.	.	2ff#\	.	2aa\	.	2.a\	-lis
8D\J	.	.	.	.	.	.	.	.
8D\L	.	.	.	.	.	.	.	.
8D\	.	.	.	.	.	.	.	.
8D\	7 4	.	4ee\	.	4gg\	.	.	.
8D\J	.	.	.	.	.	.	.	.
=70	=70	=70	=70	=70	=70	=70	=70	=70
8D\L	8 3	.	4dd\	.	8ff#\	.	(>4.a\	et
8D\	.	.	.	.	4a/	.	.	.
8D\	.	.	[<2.a/	.	.	.	.	.
8D\J	.	.	.	.	8dd\	.	8dd\)	.
8E\L	X 6	.	.	.	8cc#\|	.	(>4.cc#\	Tri-
8E\	.	.	.	.	(>4cc#\	.	.	.
8E\	.	.	.	.	.	.	.	.
8E\J	.	.	.	.	8ee\)	.	8ee\)	-um-
!	!	!	!	!	!LO:LB:g=original	!	!LO:LB:g=original	!
=71	=71	=71	=71	=71	=71	=71	=71	=71
8F#\L	X 6	.	1a_<	.	8dd\|	.	(>4.dd\	-pha-
8F#\	.	.	.	.	(>4dd\	.	.	.
8F#\	.	.	.	.	.	.	.	.
8F#\J	.	.	.	.	8ff#\)	.	8ff#\)	.
8C#/L	X 6	.	.	.	8ee\|	.	(>4.ee\	.
8C#/	.	.	.	.	(>4ee\	.	.	.
8C#/	.	.	.	.	.	.	.	.
8C#/J	.	.	.	.	8gg\)	.	8gg\)	.
=72	=72	=72	=72	=72	=72	=72	=72	=72
8D\L	.	.	1a_<	.	8ff#\|	.	(>4.ff#\	.
8D\	.	.	.	.	(>4ff#\	.	.	.
8D\	.	.	.	.	.	.	.	.
8D\J	.	.	.	.	8aa\)	.	8aa\)	.
8E\L	X 6	.	.	.	8cc#\|	.	(>4.cc#\	.
8E\	.	.	.	.	(>4cc#\	.	.	.
8E\	.	.	.	.	.	.	.	.
8E\J	.	.	.	.	8ee\)	.	8ee\)	.
=73	=73	=73	=73	=73	=73	=73	=73	=73
8F#\L	X 6	.	1a]	.	8dd\|	.	(>4.dd\	.
8F#\	.	.	.	.	(>4dd\	.	.	.
8F#\	.	.	.	.	.	.	.	.
8F#\J	.	.	.	.	8ff#\)	.	8ff#\)	.
8C#/L	X 6	.	.	.	8ee\|	.	(>4.ee\	.
8C#/	.	.	.	.	(>4ee\	.	.	.
8C#/	.	.	.	.	.	.	.	.
8C#/J	.	.	.	.	8gg\)	.	8gg\)	.
!LO:LB:g=original	!	!	!	!	!	!	!	!
=74	=74	=74	=74	=74	=74	=74	=74	=74
8D\L	.	.	(>4.dd\	.	4.ff#\	.	4.ff#\	.
8D\	.	.	.	.	.	.	.	.
8D\	.	.	.	.	.	.	.	.
8D\J	.	.	16ee\LL	.	(>16gg\LL	.	16gg\LL	.
.	.	.	16ff#\JJ)	.	16aa\JJ)	.	16aa\JJ	.
8G\L	8 6	.	4ee\	.	4gg\	.	4gg\	.
8G\	.	.	.	.	.	.	.	.
8G#X\	7 5	.	4dd\	.	4ff#\	.	4ff#\	-tor
8G#\J	.	.	.	.	.	.	.	.
=75	=75	=75	=75	=75	=75	=75	=75	=75
!	!	!	!LO:TX:a:B:t=t	!	!LO:TX:a:t=P:problem=złe wyświetlanie	!	!	!
.	.	.	8qqee/	.	.	.	16qqgg	.
8A\L	6 4	.	8.dd\L	.	(>4ff#\	.	8.ff#\	no-
8A\J	.	.	.	.	.	.	.	.
.	.	.	16cc#\Jk	.	.	.	16ee\	-bi-
!	!	!	!	!LO:HP:b:t=for	!LO:TX:a:t=P:problem=mixed beam	!	!	!
8A\L	5 3	.	8cc#\L	f	8ee\L)	.	4ee\	-lis
!	!	!	!	!	!	!LO:HP:b:t=for	!	!
16A\L	.	.	16a\L	.	16a/L	f	.	.
16B\JJ	.	.	16b\JJ	.	16b/JJ	.	.	.
8A\L	.	.	8a/L	.	8a/L	.	2r	.
16G\L	.	.	16g/L	.	16g/L	.	.	.
16F#\JJ	.	.	16f#/JJ	.	16f#/JJ	.	.	.
8E\L	X 6	.	8e/L	.	8e/L	.	.	.
8D\J	.	.	8d/J	.	8d/J	.	.	.
=76	=76	=76	=76	=76	=76	=76	=76	=76
8C#/L	X 6	.	4c#/	.	4c#/	.	8a\L	dul-
8C#/	.	.	.	.	.	.	16b\L	.
.	.	.	.	.	.	.	16cc#\JJ	.
8C#/	.	.	4r	.	4r	.	16dd\LL	-ce-
.	.	.	.	.	.	.	16ee\	.
8C#/J	.	.	.	.	.	.	16ff#\	.
.	.	.	.	.	.	.	16gg\JJ	.
8C#/L	.	.	2r	.	2r	.	4aa\	.
8C#/	.	.	.	.	.	.	.	.
8C#/	X 5	.	.	.	.	.	4gg\	.
8C#/J	.	.	.	.	.	.	.	.
!	!	!	!LO:LB:g=original	!	!	!	!LO:LB:g=original	!
=77	=77	=77	=77	=77	=77	=77	=77	=77
!	!	!	!	!LO:DY:b:rj	!	!	!	!
!	!	!	!	!LO:HP:b:t=pocofor.	!	!	!	!
8D/L	.	.	8a\L	mf	8a\L	.	8ff#\	.
8AA/	.	.	16b\L	.	16b\L	.	8ee\	-do
.	.	.	16cc#\JJ	.	16cc#\JJ	.	.	.
!	!	!	!	!	!	!LO:HP:b:t=for	!	!
!	!	!	!	!	!	!LO:DY:b:rj	!	!
8AA/	.	.	16dd\LL	.	16dd\LL	f	4r	.
.	.	.	16ee\	.	16ee\	.	.	.
8AA/J	.	.	16ff#\	.	16ff#\	.	.	.
.	.	.	16gg\JJ	.	16gg\JJ	.	.	.
!	!	!	!	!	!LO:LB:g=original	!	!	!
!	!	!	!	!	!LO:TX:a:t=a	!	!	!
8AA/L	.	.	4aa\	.	4aa\	.	4r	.
8AA/	.	.	.	.	.	.	.	.
8AA/	X 7	.	4ee\	.	4gg\	.	8a\	in-
8AA/J	.	.	.	.	.	.	8a\	-effa-
=78	=78	=78	=78	=78	=78	=78	=78	=78
.	.	.	.	.	8qqgg/	.	.	.
8AA/L	6 4	.	8dd\L	.	8ff#\L	.	8a\L	.
8AA/	5 3	.	8cc#\J	.	8ee\J	.	16b\L	.
.	.	.	.	.	.	.	16cc#\JJ	.
8AA/	.	.	4r	.	4r	.	16dd\LL	.
.	.	.	.	.	.	.	16ee\	.
8AA/J	.	.	.	.	.	.	16ff#\	.
.	.	.	.	.	.	.	16gg\JJ	.
8AA/L	.	.	2r	.	2r	.	4aa\	.
8AA/	.	.	.	.	.	.	.	.
8AA/	7	.	.	.	.	.	4gg\	.
8AA/J	.	.	.	.	.	.	.	.
=79	=79	=79	=79	=79	=79	=79	=79	=79
.	.	.	.	.	.	.	8qqgg/	.
8AA/L	6 4	.	8a\L	.	8a\L	.	16.ff#\	.
.	.	.	.	.	.	.	32ee\	-bi-
8AA/	.	.	16b\L	.	16b\L	.	8ee\	-lis
.	.	.	16cc#\JJ	.	16cc#\JJ	.	.	.
8AA/	5 3	.	16dd\LL	.	16dd\LL	.	4r	.
.	.	.	16ee\	.	16ee\	.	.	.
8AA/J	.	.	16ff#\	.	16ff#\	.	.	.
.	.	.	16gg\JJ	.	16gg\JJ	.	.	.
!LO:TX:a:t=P:problem=mixed beam	!	!	!	!	!	!	!	!
8AA/L	.	.	4aa\	.	4aa\	.	2r	.
8AA/	.	.	.	.	.	.	.	.
8AA/	.	.	4ee\	.	4gg\	.	.	.
8A\J	.	.	.	.	.	.	.	.
!LO:LB:g=original	!	!	!	!	!	!	!	!
=80	=80	=80	=80	=80	=80	=80	=80	=80
!	!	!	!	!LO:HP:b:t=piano	!	!LO:HP:b:t=pia	!	!
!	!	!	!	!LO:DY:b:rj	!	!LO:DY:b:rj	!	!
8B\L	X 3	.	8dd\L	p	8ff#\L	p	(>4.dd\	to-
8B\	.	.	8dd\	.	8ff#\	.	.	.
8B\	.	.	8dd\	.	8ff#\	.	.	.
8B\J	.	.	8dd\J	.	8ff#\J	.	8ff#\)	.
.	.	.	.	.	.	.	8qqff#/	.
8G\L	6 5	.	8ee\L	.	8gg\L	.	4.ee\	-tus
8G\	.	.	8ee\	.	8gg\	.	.	.
8G\	.	.	8ee\	.	8gg\	.	.	.
8G\J	.	.	8ee\J	.	8gg\J	.	8gg\	de-
=81	=81	=81	=81	=81	=81	=81	=81	=81
8G\L	4 2	.	8cc#\L	.	8ee\L	.	4.a\	-ſi-
8G\	.	.	8cc#\	.	8ee\	.	.	.
8G\	.	.	8cc#\	.	8ee\	.	.	.
8G\J	.	.	8cc#\J	.	8ee\J	.	16b\LL	-de-
.	.	.	.	.	.	.	16cc#\JJ	.
8F#\L	6	.	8dd\L	.	8ff#\L	.	4dd\	-ra-
8F#\	.	.	8dd\	.	8ff#\	.	.	.
8G\	3	.	8dd\	.	8bb\	.	4gg\	.
8G\J	.	.	8dd\J	.	8bb\J	.	.	.
!	!	!	!	!	!	!	!LO:LB:g=original	!
=82	=82	=82	=82	=82	=82	=82	=82	=82
.	.	.	.	.	.	.	8qqgg/	.
8A\L	6 4	.	4dd\	.	4ff#\	.	8ff#\L	.
8A\	.	.	.	.	.	.	16ee\L	.
.	.	.	.	.	.	.	16dd\JJ	.
*	*	*	*	*	*	*	*Xtuplet	*
8A\	.	.	4r	.	4r	.	12cc#\L	.
.	.	.	.	.	.	.	12b\	.
8A\J	.	.	.	.	.	.	.	.
.	.	.	.	.	.	.	12a\J	.
.	.	.	.	.	.	.	8qqdd/	.
8AA/L	5 3	.	4cc#\	.	4ee\	.	4.ee\	.
8AA/	.	.	.	.	.	.	.	.
8AA/	.	.	4r	.	4r	.	.	.
8AA/J	.	.	.	.	.	.	8dd\	-bi-
=83	=83	=83	=83	=83	=83	=83	=83	=83
.	.	.	16qqee/	.	16qqgg/	.	.	.
!LO:TX:a:t=P:problem=mixed beam	!	!	!	!	!	!LO:HP:b:t=for	!	!
8D/L	3_	.	(>16dd\LL	.	(>16ff#\LL	f	2dd\	-lis
!	!	!	!	!LO:DY:b:rj	!	!	!	!
!	!	!	!	!LO:HP:b:t=for	!	!	!	!
.	.	.	16cc#\	f	16ee\	.	.	.
8d\	.	.	16dd\	.	16ff#\	.	.	.
.	.	.	16ee\JJ)	.	16gg\JJ)	.	.	.
.	.	.	.	.	8qqgg/	.	.	.
8c#\	.	.	4dd\	.	4ff#\	.	.	.
8c#\J	.	.	.	.	.	.	.	.
.	.	.	16qqee/	.	.	.	.	.
8B\L	.	.	(>16dd\LL	.	(>16ff#\LL	.	2r	.
.	.	.	16cc#\	.	16ee\	.	.	.
8B\	.	.	16dd\	.	16ff#\	.	.	.
.	.	.	16ee\JJ)	.	16gg\JJ)	.	.	.
.	.	.	.	.	8qqgg/	.	.	.
8A\	.	.	4dd\	.	4ff#\	.	.	.
8A\J	x	.	.	.	.	.	.	.
!	!	!	!LO:LB:g=original	!	!LO:LB:g=original	!	!	!
=84	=84	=84	=84	=84	=84	=84	=84	=84
.	.	.	16qqee/	.	.	.	.	.
!	!	!	!	!	!LO:TX:a:t=P:problem=złe wyświetlanie	!LO:HP:b:t=pia	!	!
!	!	!	!	!LO:HP:b:t=pio	!	!	!	!
8G#X\L	7_ 5	.	(>16dd\LL	p	(>16ff#\LL	p	2dd\	de-
.	.	.	16cc#\	.	16ee\	.	.	.
8G#\	.	.	16dd\	.	16ff#\	.	.	.
.	.	.	16ee\JJ)	.	16gg\JJ)	.	.	.
8G#\	.	.	4dd\	.	4ff#\	.	.	.
8G#\J	.	.	.	.	.	.	.	.
.	.	.	16qqee/	.	16qqgg/	.	.	.
8G#\L	.	.	(>16dd\LL	.	(>16ff#\LL	.	4dd\	-si-
.	.	.	16cc#\	.	16ee\	.	.	.
8G#\	.	.	16dd\	.	16ff#\	.	.	.
.	.	.	16ee\JJ)	.	16gg\JJ)	.	.	.
!	!	!	!LO:TX:a:t=P:problem=mixed beam	!	!LO:TX:a:t=P:problem=mixed beam	!	!	!
8G#\	.	.	8dd\L	.	8ff#\L	.	4dd\	-de-
8G#\J	x	.	8d/J	.	8f#/J	.	.	.
=85	=85	=85	=85	=85	=85	=85	=85	=85
*2\right	*	*	*	*	*	*	*	*
2A\	6 4	.	4d/	.	4f#/	.	2dd;>\	-ra-
.	.	.	4r	.	4r	.	.	.
!	!	!	!LO:TX:a:t=P:problem=fermata nad dwiema pauzami	!	!LO:TX:a:t=P:problem=fermata nad dwiema pauzami	!	!LO:TX:a:B:t=t	!
.	.	.	.	.	.	.	8qqdd/	.
2AA;>/	5 3	.	2r;	.	2r;	.	4.ee\	.
.	.	.	.	.	.	.	8dd\	-bi-
=86	=86	=86	=86	=86	=86	=86	=86	=86
!	!	!LO:DY:b:rj	!	!LO:DY:b:rj	!	!	!	!
!	!	!LO:HP:b:t=for	!	!LO:HP:b:t=for	!	!LO:HP:b:t=for	!	!
8D\L	.	f	(>16dd\LL	f	(>16ff#\LL	f	2dd\	-lis
.	.	.	16ee\	.	16gg\	.	.	.
8D\	.	.	16ff#\	.	16aa\	.	.	.
.	.	.	16gg\JJ)	.	16bb\JJ)	.	.	.
8D\	.	.	4ff#\	.	4aa\	.	.	.
8D\J	.	.	.	.	.	.	.	.
.	.	.	16qqgg/	.	16qqbb/	.	.	.
!LO:LB:g=original	!	!	!	!	!	!	!	!
8D\L	.	.	8ff#\L	.	8aa\L	.	2r	.
8D\	.	.	(>16ee\L	.	(>16gg\L	.	.	.
.	.	.	16dd\JJ)	.	16ff#\JJ)	.	.	.
.	.	.	16qqff#/	.	16qqaa/	.	.	.
8D\	7 4	.	8ee\L	.	8gg\L	.	.	.
8D\J	.	.	(>16dd\L	.	(>16ff#\L	.	.	.
.	.	.	16cc#\JJ)	.	16ee\JJ)	.	.	.
=87	=87	=87	=87	=87	=87	=87	=87	=87
8D\L	8_ 3_	.	16dd\LL	.	(>16ff#\LL	.	00r	.
.	.	.	16ee\	.	16gg\	.	.	.
8D\	.	.	16ff#\	.	16aa\	.	.	.
.	.	.	16gg\JJ	.	16bb\JJ)	.	.	.
8D\	.	.	4ff#\	.	4aa\	.	.	.
8D\J	.	.	.	.	.	.	.	.
.	.	.	(<8qqgg/	.	16qqbb/	.	.	.
8D\L	.	.	8ff#\L)	.	8aa\L	.	.	.
8D\	.	.	(>16ee\L	.	16gg\L	.	.	.
.	.	.	16dd\JJ)	.	16ff#\JJ	.	.	.
.	.	.	16qqff#/	.	16qqaa/	.	.	.
8D\	7 4	.	8ee\L	.	8gg\L	.	.	.
8D\J	.	.	16dd\L	.	(>16ff#\L	.	.	.
.	.	.	16cc#\JJ	.	16ee\JJ)	.	.	.
=88	=88	=88	=88	=88	=88	=88	=88	=88
!LO:TX:a:t=P:problem=złe wyświetlanie	!	!	!	!	!	!	!	!
.	.	.	16qqee/	.	16qqgg/	.	.	.
8D\L	8_ 3	.	(>16dd\LL	.	(>16ff#\LL	.	.	.
.	.	.	16cc#\	.	16ee\	.	.	.
8d\	.	.	16dd\	.	16ff#\	.	.	.
.	.	.	16ee\JJ)	.	16gg\JJ)	.	.	.
8c#\	.	.	4dd\	.	4ff#\	.	.	.
8c#\J	.	.	.	.	.	.	.	.
.	.	.	16qqee/	.	16qqgg/	.	.	.
8B\L	.	.	(>16dd\LL	.	(>16ff#\LL	.	.	.
.	.	.	16cc#\	.	16ee\	.	.	.
8B\	.	.	16dd\	.	16ff#\	.	.	.
.	.	.	16ee\JJ)	.	16gg\JJ)	.	.	.
8A\	x	.	4dd\	.	4ff#\	.	.	.
8A\J	.	.	.	.	.	.	.	.
!	!	!	!LO:LB:g=original	!	!LO:LB:g=original	!	!	!
=89	=89	=89	=89	=89	=89	=89	=89	=89
!	!	!	!	!	!	!LO:HP:b:t=pia	!	!
.	.	.	16qqee/	.	16qqgg/	p	.	.
8G#X\L	7_ 5_	.	(>16dd\LL	.	(>16ff#\LL	.	.	.
!	!	!	!	!LO:HP:b:t=pia	!	!	!	!
.	.	.	16cc#\	p	16ee\	.	.	.
8G#\	.	.	16dd\	.	16ff#\	.	.	.
.	.	.	16ee\JJ)	.	16gg\JJ)	.	.	.
8G#\	.	.	4dd\	.	4ff#\	.	.	.
8G#\J	.	.	.	.	.	.	.	.
.	.	.	16qqee/	.	16qqgg/	.	.	.
8G#X\L	x	.	(>16dd\LL	.	(>16ff#\LL	.	.	.
.	.	.	16cc#\	.	16ee\	.	.	.
8G#\	.	.	16dd\	.	16ff#\	.	.	.
.	.	.	16ee\JJ)	.	16gg\JJ)	.	.	.
8G#\	.	.	4dd\	.	4ff#\	.	.	.
8G#\J	.	.	.	.	.	.	.	.
=90	=90	=90	=90	=90	=90	=90	=90	=90
!	!	!	!	!LO:HP:b:t=for:	!	!LO:HP:b:t=for	!	!
8A\L	6 4	.	8dd\L	f	8ff#\L	f	.	.
8A\	.	.	16cc#\L	.	16ee\L	.	.	.
.	.	.	16b\JJ	.	16dd\JJ	.	.	.
8A\	.	.	16a/LL	.	16cc#\LL	.	.	.
.	.	.	16g/	.	16b\	.	.	.
8A\J	.	.	16f#/	.	16a\	.	.	.
.	.	.	16e/JJ	.	16g\JJ	.	.	.
8AA/L	6 4	.	4d/	.	4f#/	.	.	.
8AA/	.	.	.	.	.	.	.	.
!	!	!	!LO:TX:a:B:t=t	!	!LO:TX:a:B:t=t	!	!	!
8AA/	5 3	.	4c#/	.	4e/	.	.	.
8AA/J	.	.	.	.	.	.	.	.
=91	=91	=91	=91	=91	=91	=91	=91	=91
!	!	!	!	!	!	!	!LO:TX:a:t=P:problem=fermata zarówno nad i pod pauzą	!
8DD/L	.	.	16d/LL	.	16d/LL	.	1r;<;>	.
.	.	.	16f#/	.	16f#/	.	.	.
8DD/	.	.	16a/	.	16a/	.	.	.
.	.	.	16dd/JJ	.	16dd/JJ	.	.	.
8DD/	.	.	16a/LL	.	16a/LL	.	.	.
.	.	.	16f#/	.	16f#/	.	.	.
8DD/J	.	.	16a/	.	16a/	.	.	.
.	.	.	16f#/JJ	.	16f#/JJ	.	.	.
4DD/	.	.	4d/	.	4d/	.	.	.
!	!	!	!LO:TX:a:t=P:problem=fermata pod i nad pauzą	!	!	!	!	!
4r	.	.	4r;<;>	.	4r	.	.	.
==;;>	==	==	==	==	==;;>	==	==	==
*-	*-	*-	*-	*-	*-	*-	*-	*-
!!!system-decoration: s1[(s2,s3)]s4
!!!EED: Mateusz Mrugas
!!!EEV: 2020-10-13
!!!RDF**kern: > = above
!!!RDF**kern: < = below
!!!ENC: Andrzej Kubiczek
!!!END: 2020-06-10
!!!RDF**kern: | = vertical stroke
